assets/heart.svg

<svg width="105" height="104" viewBox="0 0 105 104" fill="none" xmlns="http://www.w3.org/2000/svg">
<g clip-path="url(#clip0_334_20)">
<path d="M65.4222 15.5697L55.0123 8.64985L51.5524 13.8548L46.3475 10.3949L42.8875 15.5998L37.6826 12.1398L27.3028 27.7547L32.5077 31.2146L29.0478 36.4195L34.2527 39.8795L30.7928 45.0844L35.9977 48.5443L32.5378 53.7493L37.7427 57.2092L34.2828 62.4141L39.4877 65.8741L36.0278 71.079L41.2327 74.5389L44.6927 69.334L49.8976 72.7939L53.3575 67.589L58.5625 71.049L62.0224 65.844L67.2273 69.304L70.6873 64.099L75.8922 67.559L79.3521 62.354L84.5571 65.814L94.9369 50.1992L89.7319 46.7392L93.1919 41.5343L87.9869 38.0743L91.4469 32.8694L81.037 25.9495L77.5771 31.1545L72.3721 27.6945L68.9122 32.8995L63.7073 29.4395L67.1672 24.2346L61.9623 20.7747L65.4222 15.5697ZM61.9623 20.7747L58.5023 25.9796L63.7073 29.4395L60.2473 34.6445L65.4523 38.1044L68.9122 32.8995L74.1171 36.3594L77.5771 31.1545L87.9869 38.0743L84.527 43.2793L89.7319 46.7392L79.3521 62.354L74.1472 58.8941L70.6873 64.099L65.4823 60.6391L62.0224 65.844L56.8175 62.3841L53.3575 67.589L48.1526 64.1291L44.6927 69.334L39.4877 65.8741L42.9477 60.6691L37.7427 57.2092L41.2027 52.0043L35.9977 48.5443L39.4577 43.3394L34.2527 39.8795L37.7127 34.6745L32.5077 31.2146L42.8875 15.5998L48.0925 19.0597L51.5524 13.8548L61.9623 20.7747Z" fill="#775ADA" fill-opacity="0.1"/>
</g>
<defs>
<clipPath id="clip0_334_20">
<rect width="75" height="75" fill="white" transform="translate(42) rotate(33.6136)"/>
</clipPath>
</defs>
</svg>

<svg width="105" height="104" fill="none" xmlns="http://www.w3.org/2000/svg"><g clip-path="url(#a)"><path d="m65.422 15.57-10.41-6.92-3.46 5.205-5.205-3.46-3.46 5.205-5.204-3.46-10.38 15.615 5.205 3.46-3.46 5.204 5.205 3.46-3.46 5.205 5.205 3.46-3.46 5.205 5.205 3.46-3.46 5.205 5.205 3.46-3.46 5.205 5.205 3.46 3.46-5.205 5.205 3.46 3.46-5.205 5.205 3.46 3.46-5.205 5.204 3.46 3.46-5.205 5.205 3.46 3.46-5.205 5.205 3.46 10.38-15.615-5.205-3.46 3.46-5.205-5.205-3.46 3.46-5.205-10.41-6.92-3.46 5.205-5.205-3.46-3.46 5.206-5.205-3.46 3.46-5.205-5.205-3.46 3.46-5.205Zm-3.46 5.205-3.46 5.205 5.205 3.46-3.46 5.204 5.205 3.46 3.46-5.204 5.205 3.46 3.46-5.206 10.41 6.92-3.46 5.205 5.205 3.46-10.38 15.615-5.205-3.46-3.46 5.205-5.205-3.46-3.46 5.205-5.204-3.46-3.46 5.205-5.205-3.46-3.46 5.205-5.205-3.46 3.46-5.205-5.205-3.46 3.46-5.205-5.205-3.46 3.46-5.205-5.205-3.46 3.46-5.204-5.205-3.46L42.888 15.6l5.205 3.46 3.46-5.205 10.41 6.92Z" fill="#775ADA" fill-opacity=".1"/></g><defs><clipPath id="a"><path fill="#fff" transform="rotate(33.614 21 69.526)" d="M0 0h75v75H0z"/></clipPath></defs></svg>
